Obsidian/actions/16s/semi-starred.svg

<svg height="16" viewBox="0 0 16 16" width="16" xmlns="http://www.w3.org/2000/svg"><g fill="#bebebe"><path d="m8 .390625v12.015625l4.943359 3.201172-1.515625-5.6914064 4.572266-3.7148437-5.880859-.3164063z"/><path d="m8 .390625-2.1191406 5.4941406-5.8808594.3164063 4.5722656 3.7148437-1.515625 5.6914064 4.9433594-3.201172z" opacity=".3"/></g></svg>

<svg xmlns="http://www.w3.org/2000/svg" width="16" height="16" version="1.1" viewBox="0 0 16 16">
 <defs>
  <style id="current-color-scheme" type="text/css">
   .ColorScheme-Text { color:#bebebe; } .ColorScheme-Highlight { color:#4285f4; }
  </style>
 </defs>
 <path style="fill:currentColor" class="ColorScheme-Text" d="M 8 0.390625 L 8 12.40625 L 12.943359 15.607422 L 11.427734 9.9160156 L 16 6.2011719 L 10.119141 5.8847656 L 8 0.390625 z"/>
 <path style="opacity:0.3;fill:currentColor" class="ColorScheme-Text" d="M 8 0.390625 L 5.8808594 5.8847656 L 0 6.2011719 L 4.5722656 9.9160156 L 3.0566406 15.607422 L 8 12.40625 L 8 0.390625 z"/>
</svg>
